public/images/svg/map-free-icon-font.svg

<svg height="512" viewBox="0 0 24 24" width="512" xmlns="http://www.w3.org/2000/svg"><path d="m7 23.894a4.57 4.57 0 0 1 -.527-.122l-2.869-.9a5.013 5.013 0 0 1 -3.6-4.8v-12.072a5 5 0 0 1 6.916-4.612l.08.037zm13.68-22.727-.021-.007-2.715-.9a4.951 4.951 0 0 0 -.944-.207v22.262l2.054.592a4 4 0 0 0 4.946-3.886v-13.145a5.01 5.01 0 0 0 -3.32-4.709zm-5.68-.977s-5.843 1.673-6 1.69v22c.1-.021 6-1.636 6-1.636z" fill="#4dd171" xmlns="http://www.w3.org/2000/svg"/></svg>

<svg height="512" viewBox="0 0 24 24" width="512" xmlns="http://www.w3.org/2000/svg"><path d="M7 23.894a4.57 4.57 0 0 1-.527-.122l-2.869-.9a5.013 5.013 0 0 1-3.6-4.8V6A5 5 0 0 1 6.92 1.388l.08.037zM20.68 1.167l-.021-.007-2.715-.9A4.951 4.951 0 0 0 17 .053v22.262l2.054.592A4 4 0 0 0 24 19.021V5.876a5.01 5.01 0 0 0-3.32-4.709zM15 .19S9.157 1.863 9 1.88v22c.1-.021 6-1.636 6-1.636z" fill="#4dd171" xmlns="http://www.w3.org/2000/svg"/></svg>
